; generated by PrusaSlicer 2.2.0+win64 on 2020-12-17 at 05:41:51 UTC

; 

; external perimeters extrusion width = 0.45mm
; perimeters extrusion width = 0.45mm
; infill extrusion width = 0.45mm
; solid infill extrusion width = 0.45mm
; top infill extrusion width = 0.45mm
; first layer extrusion width = 0.45mm

M201 X1000 Y1000 Z20 E1500 ; sets maximum accelerations, mm/sec^2
M203 X13000 Y13000 Z800 E8000 ; sets maximum feedrates, mm/sec
M204 P1500 R1500 T1500 ; sets acceleration (P, T) and retract acceleration (R), mm/sec^2
M205 X17.00 Y17.00 Z0.10 E50.00 ; sets the jerk limits, mm/sec
M205 S0 T0 ; sets the minimum extruding and travel feed rate, mm/sec
M107
M190 S60 ; set bed temperature and wait for it to be reached
M104 S185 ; set temperature
G91 ; relative moves
G1 Z1 F900 ; raise tool 1mm
G90 ; absolute moves
T-1 ; Make sure nothing is parked on the carriage
G0 X150 Y150 F10000; Move to the center of the print area
M558 F500  ; Set the probing speed
G30 ; Do a single probe
M558 F50 ; Set a slower probing speed
G30 ; Do a second probe
T0
M109 S185 ; set temperature and wait for it to be reached
G21 ; set units to millimeters
G90 ; use absolute coordinates
M83 ; use relative distances for extrusion
; Filament gcode
G1 Z0.200 F19980.000
G1 X141.286 Y141.260
G1 F2400.000
G1 X142.159 Y140.468 E0.03989
G1 X143.152 Y139.732 E0.04183
G1 X144.200 Y139.105 E0.04135
G1 X145.319 Y138.580 E0.04183
G1 X146.485 Y138.169 E0.04184
G1 X147.672 Y137.879 E0.04135
G1 X148.895 Y137.707 E0.04183
G1 X150.073 Y137.658 E0.03989
G1 X151.178 Y137.714 E0.03744
G1 X152.401 Y137.894 E0.04183
G1 X153.565 Y138.184 E0.04062
G1 X154.756 Y138.611 E0.04280
G1 X155.839 Y139.126 E0.04062
G1 X156.897 Y139.765 E0.04184
G1 X157.881 Y140.501 E0.04159
G1 X158.786 Y141.332 E0.04159
G1 X159.614 Y142.260 E0.04208
G1 X160.336 Y143.254 E0.04158
G1 X160.959 Y144.322 E0.04184
G1 X161.453 Y145.400 E0.04014
G1 X161.818 Y146.442 E0.03738
G1 X162.114 Y147.636 E0.04165
G1 X162.286 Y148.816 E0.04037
G1 X162.342 Y150.073 E0.04257
G1 X162.276 Y151.278 E0.04086
G1 X162.087 Y152.500 E0.04184
G1 X161.776 Y153.696 E0.04183
G1 X161.350 Y154.848 E0.04159
G1 X160.805 Y155.966 E0.04208
G1 X160.162 Y157.004 E0.04135
G1 X159.406 Y157.991 E0.04207
G1 X158.606 Y158.847 E0.03965
G1 X157.779 Y159.582 E0.03745
G1 X156.782 Y160.312 E0.04184
G1 X155.749 Y160.922 E0.04062
G1 X154.608 Y161.450 E0.04256
G1 X153.474 Y161.844 E0.04062
G1 X152.279 Y162.130 E0.04160
G1 X151.062 Y162.297 E0.04159
G1 X149.862 Y162.342 E0.04062
G1 X148.614 Y162.264 E0.04232
G1 X147.437 Y162.073 E0.04038
G1 X146.373 Y161.797 E0.03720
G1 X145.218 Y161.378 E0.04159
G1 X144.148 Y160.867 E0.04014
G1 X143.091 Y160.227 E0.04183
G1 X142.108 Y159.490 E0.04159
G1 X141.198 Y158.653 E0.04183
G1 X140.377 Y157.729 E0.04184
G1 X139.660 Y156.740 E0.04135
G1 X139.038 Y155.672 E0.04184
G1 X138.545 Y154.594 E0.04013
G1 X138.145 Y153.432 E0.04159
G1 X137.886 Y152.364 E0.03720
G1 X137.714 Y151.183 E0.04038
G1 X137.658 Y149.927 E0.04256
G1 X137.723 Y148.729 E0.04062
G1 X137.910 Y147.514 E0.04159
G1 X138.215 Y146.332 E0.04135
G1 X138.627 Y145.204 E0.04062
G1 X139.174 Y144.072 E0.04256
G1 X139.797 Y143.055 E0.04038
G1 X140.459 Y142.171 E0.03738
G1 X141.246 Y141.304 E0.03962
G1 X141.547 Y141.577 F19980.000
G1 F2400.000
G1 X142.421 Y140.780 E0.04004
G1 X143.381 Y140.068 E0.04045
G1 X144.395 Y139.463 E0.03998
G1 X145.477 Y138.955 E0.04045
G1 X146.604 Y138.558 E0.04045
G1 X147.751 Y138.278 E0.03998
G1 X148.935 Y138.112 E0.04045
G1 X150.073 Y138.065 E0.03856
G1 X151.142 Y138.120 E0.03623
G1 X152.326 Y138.294 E0.04050
G1 X153.445 Y138.573 E0.03903
G1 X154.602 Y138.988 E0.04163
G1 X155.650 Y139.487 E0.03927
G1 X156.673 Y140.104 E0.04045
G1 X157.624 Y140.817 E0.04021
G1 X158.499 Y141.620 E0.04022
G1 X159.299 Y142.518 E0.04069
G1 X159.996 Y143.479 E0.04021
G1 X160.602 Y144.518 E0.04069
G1 X161.076 Y145.553 E0.03856
G1 X161.428 Y146.557 E0.03599
G1 X161.714 Y147.712 E0.04027
G1 X161.880 Y148.852 E0.03903
G1 X161.935 Y150.067 E0.04117
G1 X161.871 Y151.240 E0.03974
G1 X161.687 Y152.421 E0.04045
G1 X161.389 Y153.570 E0.04021
G1 X160.978 Y154.685 E0.04021
G1 X160.447 Y155.772 E0.04093
G1 X159.826 Y156.776 E0.03998
G1 X159.094 Y157.730 E0.04068
G1 X158.321 Y158.556 E0.03832
G1 X157.525 Y159.264 E0.03606
G1 X156.561 Y159.970 E0.04045
G1 X155.562 Y160.560 E0.03926
G1 X154.458 Y161.071 E0.04116
G1 X153.363 Y161.452 E0.03927
G1 X152.207 Y161.730 E0.04022
G1 X151.030 Y161.891 E0.04021
G1 X149.864 Y161.935 E0.03950
G1 X148.650 Y161.859 E0.04116
G1 X147.519 Y161.674 E0.03879
G1 X146.490 Y161.407 E0.03599
G1 X145.372 Y161.001 E0.04027
G1 X144.338 Y160.507 E0.03879
G1 X143.316 Y159.888 E0.04045
G1 X142.371 Y159.179 E0.03998
G1 X141.491 Y158.370 E0.04045
G1 X140.697 Y157.477 E0.04045
G1 X140.000 Y156.515 E0.04021
G1 X139.398 Y155.482 E0.04046
G1 X138.922 Y154.440 E0.03879
G1 X138.535 Y153.317 E0.04021
G1 X138.286 Y152.288 E0.03582
G1 X138.120 Y151.147 E0.03903
G1 X138.065 Y149.933 E0.04116
G1 X138.128 Y148.774 E0.03927
G1 X138.308 Y147.600 E0.04022
G1 X138.605 Y146.450 E0.04021
G1 X139.004 Y145.360 E0.03927
G1 X139.533 Y144.265 E0.04116
G1 X140.135 Y143.282 E0.03903
G1 X140.772 Y142.431 E0.03599
G1 X141.506 Y141.621 E0.03698
G1 X141.808 Y141.894 F19980.000
G1 F2400.000
G1 X142.677 Y141.096 E0.03995
G1 X143.604 Y140.409 E0.03907
G1 X144.583 Y139.824 E0.03861
G1 X145.628 Y139.333 E0.03907
G1 X146.723 Y138.947 E0.03930
G1 X147.831 Y138.678 E0.03861
G1 X148.974 Y138.517 E0.03907
G1 X150.073 Y138.472 E0.03722
G1 X151.101 Y138.525 E0.03484
G1 X152.244 Y138.693 E0.03912
G1 X153.331 Y138.964 E0.03791
G1 X154.443 Y139.362 E0.03999
G1 X155.454 Y139.844 E0.03791
G1 X156.443 Y140.440 E0.03907
G1 X157.361 Y141.128 E0.03884
G1 X158.207 Y141.903 E0.03884
G1 X158.984 Y142.775 E0.03953
G1 X159.653 Y143.698 E0.03860
G1 X160.238 Y144.701 E0.03930
G1 X160.699 Y145.707 E0.03746
G1 X161.037 Y146.672 E0.03461
G1 X161.314 Y147.787 E0.03889
G1 X161.475 Y148.896 E0.03791
G1 X161.528 Y150.069 E0.03976
G1 X161.466 Y151.194 E0.03814
G1 X161.289 Y152.335 E0.03907
G1 X160.999 Y153.452 E0.03906
G1 X160.602 Y154.528 E0.03883
G1 X160.089 Y155.577 E0.03953
G1 X159.489 Y156.547 E0.03861
G1 X158.782 Y157.468 E0.03929
G1 X158.035 Y158.266 E0.03699
G1 X157.265 Y158.951 E0.03490
G1 X156.339 Y159.629 E0.03884
G1 X155.375 Y160.199 E0.03791
G1 X154.309 Y160.693 E0.03976
G1 X153.244 Y161.062 E0.03814
G1 X152.129 Y161.330 E0.03884
G1 X150.992 Y161.486 E0.03883
G1 X149.866 Y161.527 E0.03815
G1 X148.694 Y161.454 E0.03976
G1 X147.595 Y161.274 E0.03768
G1 X146.486 Y160.979 E0.03883
G1 X145.532 Y160.627 E0.03444
G1 X144.534 Y160.150 E0.03745
G1 X143.546 Y159.552 E0.03907
G1 X142.628 Y158.864 E0.03884
G1 X141.779 Y158.082 E0.03907
G1 X141.012 Y157.220 E0.03907
G1 X140.339 Y156.290 E0.03883
G1 X139.759 Y155.293 E0.03907
G1 X139.299 Y154.287 E0.03745
G1 X138.924 Y153.195 E0.03907
G1 X138.685 Y152.206 E0.03444
G1 X138.525 Y151.104 E0.03768
G1 X138.472 Y149.931 E0.03976
G1 X138.533 Y148.813 E0.03791
G1 X138.708 Y147.679 E0.03884
G1 X138.995 Y146.568 E0.03884
G1 X139.380 Y145.516 E0.03791
G1 X139.891 Y144.458 E0.03976
G1 X140.473 Y143.509 E0.03768
G1 X141.086 Y142.691 E0.03461
G1 X141.767 Y141.939 E0.03435
G1 X142.084 Y142.201 F19980.000
G1 F2400.000
G1 X142.933 Y141.413 E0.03925
G1 X143.827 Y140.749 E0.03768
G1 X144.777 Y140.181 E0.03746
G1 X145.785 Y139.708 E0.03768
G1 X146.835 Y139.339 E0.03769
G1 X147.911 Y139.077 E0.03746
G1 X149.013 Y138.923 E0.03768
G1 X150.073 Y138.879 E0.03589
G1 X152.163 Y139.091 E0.07111
G1 X153.211 Y139.352 E0.03656
G1 X154.284 Y139.737 E0.03858
G1 X155.259 Y140.201 E0.03656
G1 X156.213 Y140.776 E0.03769
G1 X157.099 Y141.439 E0.03746
G1 X157.919 Y142.192 E0.03769
G1 X158.668 Y143.033 E0.03814
G1 X159.314 Y143.923 E0.03723
G1 X159.878 Y144.891 E0.03791
G1 X160.322 Y145.861 E0.03612
G1 X160.915 Y147.870 E0.07089
G1 X161.070 Y148.932 E0.03633
G1 X161.121 Y150.064 E0.03836
G1 X161.062 Y151.149 E0.03678
G1 X160.890 Y152.256 E0.03791
G1 X160.612 Y153.327 E0.03746
G1 X160.226 Y154.371 E0.03768
G1 X159.735 Y155.378 E0.03791
G1 X159.152 Y156.318 E0.03746
G1 X158.470 Y157.207 E0.03790
G1 X157.750 Y157.976 E0.03567
G1 X156.112 Y159.291 E0.07112
G1 X155.187 Y159.837 E0.03633
G1 X154.153 Y160.317 E0.03858
G1 X153.126 Y160.673 E0.03679
G1 X152.050 Y160.931 E0.03746
G1 X150.954 Y161.080 E0.03746
G1 X149.868 Y161.120 E0.03679
G1 X148.737 Y161.049 E0.03836
G1 X147.684 Y160.877 E0.03611
G1 X145.692 Y160.253 E0.07067
G1 X144.729 Y159.793 E0.03611
G1 X143.771 Y159.213 E0.03791
G1 X142.891 Y158.553 E0.03724
G1 X142.067 Y157.794 E0.03791
G1 X141.328 Y156.962 E0.03768
G1 X140.679 Y156.066 E0.03746
G1 X140.119 Y155.103 E0.03769
G1 X139.675 Y154.133 E0.03611
G1 X139.085 Y152.130 E0.07067
G1 X138.930 Y151.068 E0.03634
G1 X138.879 Y149.936 E0.03836
G1 X138.938 Y148.858 E0.03656
G1 X139.106 Y147.764 E0.03746
G1 X139.382 Y146.692 E0.03746
G1 X139.753 Y145.678 E0.03656
G1 X140.249 Y144.652 E0.03858
G1 X140.811 Y143.736 E0.03634
G1 X142.045 Y142.247 E0.06547
G1 X142.357 Y142.506 F19980.000
G1 F2400.000
G1 X142.434 Y142.414 E0.00405
G1 X143.195 Y141.725 E0.03477
G1 X144.056 Y141.086 E0.03630
G1 X144.972 Y140.539 E0.03608
G1 X145.943 Y140.084 E0.03630
G1 X146.954 Y139.728 E0.03630
G1 X147.990 Y139.476 E0.03608
G1 X149.052 Y139.328 E0.03630
G1 X150.072 Y139.286 E0.03456
G1 X152.081 Y139.490 E0.06835
G1 X153.091 Y139.741 E0.03521
G1 X154.131 Y140.114 E0.03739
G1 X155.070 Y140.561 E0.03521
G1 X155.988 Y141.115 E0.03630
G1 X156.841 Y141.754 E0.03608
G1 X157.631 Y142.480 E0.03630
G1 X158.353 Y143.290 E0.03674
G1 X158.978 Y144.154 E0.03608
G1 X159.521 Y145.086 E0.03652
G1 X159.948 Y146.021 E0.03478
G1 X160.515 Y147.945 E0.06791
G1 X160.664 Y148.968 E0.03499
G1 X160.714 Y150.066 E0.03718
G1 X160.656 Y151.111 E0.03543
G1 X160.492 Y152.170 E0.03630
G1 X160.223 Y153.208 E0.03630
G1 X159.851 Y154.214 E0.03630
G1 X159.377 Y155.184 E0.03652
G1 X158.815 Y156.090 E0.03608
G1 X158.158 Y156.945 E0.03651
G1 X157.460 Y157.690 E0.03456
G1 X155.884 Y158.953 E0.06836
G1 X154.994 Y159.479 E0.03499
G1 X153.998 Y159.940 E0.03717
G1 X153.015 Y160.281 E0.03521
G1 X151.972 Y160.531 E0.03630
G1 X150.916 Y160.675 E0.03608
G1 X149.870 Y160.713 E0.03543
G1 X148.786 Y160.645 E0.03674
G1 X147.766 Y160.478 E0.03499
G1 X145.852 Y159.878 E0.06792
G1 X144.924 Y159.436 E0.03478
G1 X144.001 Y158.877 E0.03652
G1 X143.149 Y158.237 E0.03608
G1 X142.355 Y157.507 E0.03652
G1 X141.643 Y156.705 E0.03630
G1 X141.018 Y155.841 E0.03608
G1 X140.479 Y154.914 E0.03630
G1 X140.050 Y153.973 E0.03499
G1 X139.484 Y152.048 E0.06792
G1 X139.336 Y151.032 E0.03477
G1 X139.286 Y149.935 E0.03717
G1 X139.343 Y148.896 E0.03521
G1 X139.505 Y147.842 E0.03608
G1 X139.772 Y146.810 E0.03608
G1 X140.129 Y145.833 E0.03521
G1 X140.608 Y144.845 E0.03717
G1 X141.148 Y143.964 E0.03499
G1 X142.319 Y142.553 E0.06206
G1 X142.631 Y142.811 F19980.000
G1 F2400.000
G1 X142.720 Y142.704 E0.00471
G1 X144.280 Y141.426 E0.06827
G1 X145.160 Y140.900 E0.03471
G1 X146.094 Y140.462 E0.03492
G1 X147.067 Y140.119 E0.03492
G1 X148.063 Y139.877 E0.03471
G1 X150.072 Y139.693 E0.06827
G1 X152.000 Y139.889 E0.06560
G1 X152.971 Y140.131 E0.03386
G1 X153.972 Y140.489 E0.03597
G1 X154.875 Y140.919 E0.03386
G1 X155.758 Y141.452 E0.03492
G1 X156.579 Y142.066 E0.03471
G1 X157.339 Y142.763 E0.03492
G1 X158.034 Y143.543 E0.03534
G1 X158.636 Y144.373 E0.03470
G1 X159.568 Y146.169 E0.06849
G1 X160.115 Y148.022 E0.06539
G1 X160.259 Y149.005 E0.03365
G1 X160.307 Y150.061 E0.03577
G1 X160.252 Y151.066 E0.03407
G1 X160.093 Y152.091 E0.03513
G1 X159.835 Y153.084 E0.03470
G1 X159.478 Y154.051 E0.03491
G1 X159.019 Y154.989 E0.03535
G1 X158.479 Y155.861 E0.03471
G1 X157.175 Y157.400 E0.06827
G1 X155.668 Y158.609 E0.06540
G1 X154.807 Y159.118 E0.03386
G1 X153.848 Y159.562 E0.03576
G1 X152.903 Y159.890 E0.03386
G1 X151.900 Y160.131 E0.03492
G1 X150.884 Y160.269 E0.03470
G1 X149.872 Y160.306 E0.03428
G1 X148.823 Y160.240 E0.03555
G1 X147.842 Y160.078 E0.03365
G1 X146.005 Y159.501 E0.06518
G1 X144.231 Y158.542 E0.06827
G1 X143.411 Y157.926 E0.03471
G1 X142.647 Y157.223 E0.03513
G1 X141.962 Y156.452 E0.03492
G1 X141.361 Y155.622 E0.03471
G1 X140.429 Y153.826 E0.06849
G1 X139.885 Y151.978 E0.06518
G1 X139.741 Y150.995 E0.03365
G1 X139.693 Y149.939 E0.03576
G1 X139.904 Y147.927 E0.06849
G1 X140.159 Y146.934 E0.03471
G1 X140.506 Y145.989 E0.03407
G1 X140.966 Y145.038 E0.03576
G1 X141.486 Y144.191 E0.03365
G1 X142.593 Y142.858 E0.05864
G1 X147.294 Y147.514 F19980.000
G1 F2400.000
G1 X147.560 Y147.253 E0.01260
G1 X147.850 Y147.020 E0.01260
G1 X148.163 Y146.818 E0.01260
G1 X148.494 Y146.648 E0.01260
G1 X148.841 Y146.513 E0.01260
G1 X149.200 Y146.414 E0.01260
G1 X149.567 Y146.351 E0.01260
G1 X149.940 Y146.326 E0.01266
G1 X150.556 Y146.368 E0.02092
G1 X150.921 Y146.443 E0.01260
G1 X151.276 Y146.554 E0.01260
G1 X151.618 Y146.701 E0.01260
G1 X151.944 Y146.881 E0.01260
G1 X152.249 Y147.094 E0.01260
G1 X152.532 Y147.337 E0.01260
G1 X152.788 Y147.606 E0.01260
G1 X153.016 Y147.901 E0.01260
G1 X153.213 Y148.217 E0.01260
G1 X153.377 Y148.551 E0.01260
G1 X153.506 Y148.900 E0.01260
G1 X153.599 Y149.260 E0.01260
G1 X153.673 Y149.874 E0.02092
G1 X153.666 Y150.248 E0.01266
G1 X153.622 Y150.618 E0.01260
G1 X153.541 Y150.981 E0.01260
G1 X153.423 Y151.336 E0.01266
G1 X153.151 Y151.891 E0.02092
G1 X152.943 Y152.200 E0.01260
G1 X152.706 Y152.486 E0.01260
G1 X152.440 Y152.747 E0.01260
G1 X152.150 Y152.980 E0.01260
G1 X151.837 Y153.182 E0.01260
G1 X151.506 Y153.352 E0.01260
G1 X151.159 Y153.487 E0.01260
G1 X150.799 Y153.587 E0.01266
G1 X150.186 Y153.670 E0.02092
G1 X149.814 Y153.670 E0.01260
G1 X149.444 Y153.632 E0.01260
G1 X149.079 Y153.557 E0.01260
G1 X148.724 Y153.446 E0.01260
G1 X148.382 Y153.299 E0.01260
G1 X148.056 Y153.119 E0.01260
G1 X147.751 Y152.906 E0.01260
G1 X147.467 Y152.662 E0.01266
G1 X147.057 Y152.200 E0.02092
G1 X146.849 Y151.891 E0.01260
G1 X146.674 Y151.562 E0.01260
G1 X146.533 Y151.218 E0.01260
G1 X146.428 Y150.861 E0.01260
G1 X146.359 Y150.495 E0.01260
G1 X146.327 Y150.124 E0.01260
G1 X146.334 Y149.752 E0.01260
G1 X146.378 Y149.382 E0.01260
G1 X146.459 Y149.019 E0.01260
G1 X146.577 Y148.664 E0.01266
G1 X146.849 Y148.109 E0.02092
G1 X147.057 Y147.800 E0.01260
G1 X147.256 Y147.560 E0.01057
G1 X147.658 Y147.595 F19980.000
G1 X147.590 Y147.860
G1 F2400.000
G1 X147.960 Y147.502 E0.01742
G1 X148.162 Y147.350 E0.00856
G1 X148.469 Y147.161 E0.01220
G1 X148.935 Y146.956 E0.01723
G1 X149.291 Y146.854 E0.01254
G1 X149.659 Y146.793 E0.01261
G1 X150.021 Y146.775 E0.01228
G1 X150.281 Y146.787 E0.00883
G1 X150.646 Y146.840 E0.01248
G1 X150.892 Y146.900 E0.00856
G1 X151.239 Y147.022 E0.01247
G1 X151.469 Y147.129 E0.00856
G1 X151.789 Y147.316 E0.01254
G1 X152.078 Y147.534 E0.01228
G1 X152.271 Y147.710 E0.00882
G1 X152.512 Y147.978 E0.01221
G1 X152.799 Y148.398 E0.01723
G1 X152.964 Y148.728 E0.01247
G1 X153.054 Y148.964 E0.00856
G1 X153.153 Y149.319 E0.01247
G1 X153.196 Y149.568 E0.00856
G1 X153.225 Y149.936 E0.01247
G1 X153.220 Y150.189 E0.00856
G1 X153.177 Y150.557 E0.01254
G1 X153.092 Y150.919 E0.01261
G1 X152.969 Y151.261 E0.01228
G1 X152.857 Y151.496 E0.00883
G1 X152.668 Y151.813 E0.01248
G1 X152.517 Y152.016 E0.00856
G1 X152.271 Y152.290 E0.01247
G1 X152.085 Y152.461 E0.00856
G1 X151.789 Y152.684 E0.01254
G1 X151.469 Y152.871 E0.01254
G1 X151.239 Y152.978 E0.00856
G1 X150.892 Y153.100 E0.01247
G1 X150.646 Y153.160 E0.00856
G1 X150.282 Y153.213 E0.01247
G1 X150.029 Y153.225 E0.00856
G1 X149.661 Y153.207 E0.01247
G1 X149.411 Y153.171 E0.00856
G1 X149.053 Y153.083 E0.01247
G1 X148.814 Y152.999 E0.00856
G1 X148.480 Y152.845 E0.01247
G1 X148.262 Y152.717 E0.00856
G1 X147.969 Y152.506 E0.01220
G1 X147.774 Y152.334 E0.00883
G1 X147.522 Y152.064 E0.01248
G1 X147.232 Y151.655 E0.01696
G1 X147.060 Y151.327 E0.01254
G1 X146.927 Y150.979 E0.01261
G1 X146.837 Y150.628 E0.01228
G1 X146.796 Y150.370 E0.00883
G1 X146.775 Y150.002 E0.01248
G1 X146.784 Y149.749 E0.00856
G1 X146.834 Y149.384 E0.01247
G1 X146.892 Y149.138 E0.00856
G1 X147.011 Y148.787 E0.01254
G1 X147.167 Y148.460 E0.01228
G1 X147.300 Y148.236 E0.00883
G1 X147.550 Y147.905 E0.01403
