; generated by PrusaSlicer 2.4.2+win64 on 2022-07-30 at 16:02:29 UTC
; Editable temperature tower

var layer_A_temp = 215
var layer_B_temp = 210
var layer_C_temp = 205
var layer_D_temp = 200
var layer_E_temp = 195
var layer_F_temp = 190

var bed_temp = 65




M107 ; disable fan
M190 S{var.bed_temp} ; set bed temperature and wait for it to be reached
;TYPE:Custom
T0 ; select Tool 0

G10 S{var.layer_A_temp} P0 ; set temperature
M116 ; wait for temperature to be reached
G21 ; set units to millimeters
G90 ; use absolute coordinates
M83 ; use relative distances for extrusion
; Filament gcode
M107 ; disable fan
;LAYER_CHANGE
;Z:0.2
;HEIGHT:0.2

;Temperature_tower_tweaks - START
M104  S{var.layer_A_temp}      ;adjust hotend temperature to A 
;M116  S1 ; Wait for temperature to reach within one degree of target temperatures
;Temperature_tower_tweaks - END
         
G1 Z.2 F3600 ; move to next layer (0)
G1 E-3 F3000 ; retract
G1 X127.283 Y110.014 F3600 ; move to first skirt point
G1 E3 F3000 ;  ; unretract
;TYPE:Skirt/Brim
;WIDTH:0.45
G1 F3600
G1 X130.907 Y106.611 E.16825 ; skirt
G1 X132.806 Y105.372 E.07676 ; skirt
G1 X135.545 Y104.859 E.09432 ; skirt
G1 X169.158 Y105.96 E1.13837 ; skirt
G1 X170.582 Y106.215 E.04897 ; skirt
G1 X172.96 Y106.976 E.08454 ; skirt
G1 X174.951 Y107.777 E.07261 ; skirt
G1 X176.874 Y108.979 E.07676 ; skirt
G1 X177.956 Y110.245 E.05639 ; skirt
G1 X180.02 Y113.407 E.12782 ; skirt
G1 X180.908 Y115.494 E.07676 ; skirt
G1 X181.071 Y117.152 E.05639 ; skirt
G1 X180.673 Y129.787 E.4279 ; skirt
G1 X180.206 Y132.006 E.07676 ; skirt
G1 X179.393 Y133.454 E.05621 ; skirt
G1 X177.14 Y136.478 E.12764 ; skirt
G1 X175.488 Y138.031 E.07676 ; skirt
G1 X173.992 Y138.753 E.05621 ; skirt
G1 X171.78 Y139.485 E.07886 ; skirt
G1 X170.156 Y139.913 E.05685 ; skirt
G1 X168.775 Y140.153 E.04744 ; skirt
G1 X167.33 Y140.231 E.04899 ; skirt
G1 X134.465 Y139.198 E1.11301 ; skirt
G1 X132.246 Y138.731 E.07676 ; skirt
G1 X129.946 Y137.157 E.09432 ; skirt
G1 X126.544 Y133.534 E.16825 ; skirt
G1 X125.305 Y131.635 E.07676 ; skirt
G1 X124.791 Y128.896 E.09432 ; skirt
G1 X125.243 Y114.533 E.48643 ; skirt
G1 X125.71 Y112.314 E.07676 ; skirt
G1 X127.249 Y110.063 E.09228 ; skirt
G1 X127.562 Y110.311 ; move to first skirt point
G1 X131.185 Y106.908 E.16825 ; skirt
G1 X133.03 Y105.72 E.07429 ; skirt
G1 X135.532 Y105.266 E.08605 ; skirt
G1 X169.098 Y106.362 E1.13678 ; skirt
G1 X170.476 Y106.608 E.04737 ; skirt
G1 X172.814 Y107.356 E.08312 ; skirt
G1 X174.799 Y108.154 E.0724 ; skirt
G1 X176.653 Y109.328 E.07429 ; skirt
G1 X177.615 Y110.468 E.05047 ; skirt
G1 X179.679 Y113.63 E.12782 ; skirt
G1 X180.527 Y115.654 E.07429 ; skirt
G1 X180.664 Y117.139 E.05047 ; skirt
G1 X180.266 Y129.774 E.4279 ; skirt
G1 X179.802 Y131.919 E.07429 ; skirt
G1 X179.067 Y133.211 E.05031 ; skirt
G1 X176.813 Y136.235 E.12764 ; skirt
G1 X175.206 Y137.728 E.07429 ; skirt
G1 X173.864 Y138.367 E.05031 ; skirt
G1 X171.664 Y139.095 E.07843 ; skirt
G1 X170.068 Y139.516 E.05586 ; skirt
G1 X168.741 Y139.747 E.0456 ; skirt
G1 X167.343 Y139.824 E.04739 ; skirt
G1 X134.478 Y138.791 E1.11301 ; skirt
G1 X132.333 Y138.327 E.07429 ; skirt
G1 X130.243 Y136.879 E.08605 ; skirt
G1 X126.84 Y133.255 E.16825 ; skirt
G1 X125.652 Y131.41 E.07429 ; skirt
G1 X125.198 Y128.909 E.08605 ; skirt
G1 X125.65 Y114.545 E.48643 ; skirt
G1 X126.114 Y112.4 E.07429 ; skirt
G1 X127.528 Y110.36 E.08402 ; skirt
G1 X127.841 Y110.607 ; move to first skirt point
G1 X131.464 Y107.205 E.16825 ; skirt
G1 X133.253 Y106.069 E.07173 ; skirt
G1 X135.519 Y105.673 E.07787 ; skirt
G1 X169.038 Y106.765 E1.13518 ; skirt
G1 X170.785 Y107.113 E.0603 ; skirt
G1 X172.75 Y107.769 E.07012 ; skirt
G1 X174.647 Y108.532 E.0692 ; skirt
G1 X176.43 Y109.677 E.07173 ; skirt
G1 X177.274 Y110.69 E.04464 ; skirt
G1 X179.339 Y113.852 E.12782 ; skirt
G1 X180.145 Y115.812 E.07173 ; skirt
G1 X180.257 Y117.126 E.04464 ; skirt
G1 X179.86 Y129.762 E.4279 ; skirt
G1 X179.398 Y131.83 E.07173 ; skirt
G1 X178.74 Y132.968 E.04448 ; skirt
G1 X176.487 Y135.991 E.12764 ; skirt
G1 X174.925 Y137.424 E.07173 ; skirt
G1 X173.735 Y137.981 E.04448 ; skirt
G1 X171.547 Y138.705 E.078 ; skirt
G1 X169.98 Y139.118 E.05487 ; skirt
G1 X168.707 Y139.341 E.04376 ; skirt
G1 X167.356 Y139.418 E.04579 ; skirt
G1 X134.49 Y138.384 E1.11301 ; skirt
G1 X132.422 Y137.922 E.07173 ; skirt
G1 X130.54 Y136.6 E.07787 ; skirt
G1 X127.137 Y132.977 E.16825 ; skirt
G1 X126.001 Y131.188 E.07173 ; skirt
G1 X125.605 Y128.922 E.07787 ; skirt
G1 X126.057 Y114.558 E.48643 ; skirt
G1 X126.518 Y112.49 E.07173 ; skirt
G1 X127.806 Y110.657 E.07584 ; skirt
G1 X128.119 Y110.904 ; move to first skirt point
G1 X131.743 Y107.502 E.16825 ; skirt
G1 X133.473 Y106.42 E.06908 ; skirt
G1 X135.506 Y106.08 E.06977 ; skirt
G1 X168.978 Y107.168 E1.13359 ; skirt
G1 X170.679 Y107.506 E.0587 ; skirt
G1 X172.598 Y108.146 E.06847 ; skirt
G1 X174.495 Y108.91 E.0692 ; skirt
G1 X176.204 Y110.025 E.06908 ; skirt
G1 X176.933 Y110.913 E.03889 ; skirt
G1 X178.998 Y114.075 E.12782 ; skirt
G1 X179.76 Y115.968 E.06908 ; skirt
G1 X179.85 Y117.113 E.03889 ; skirt
G1 X179.453 Y129.749 E.4279 ; skirt
G1 X178.994 Y131.737 E.06908 ; skirt
G1 X178.414 Y132.724 E.03875 ; skirt
G1 X176.161 Y135.748 E.12764 ; skirt
G1 X174.647 Y137.117 E.06908 ; skirt
G1 X173.606 Y137.595 E.03875 ; skirt
G1 X171.431 Y138.315 E.07756 ; skirt
G1 X169.892 Y138.721 E.05388 ; skirt
G1 X168.672 Y138.936 E.04192 ; skirt
G1 X167.369 Y139.011 E.0442 ; skirt
G1 X134.503 Y137.977 E1.11301 ; skirt
G1 X132.515 Y137.518 E.06908 ; skirt
G1 X130.836 Y136.321 E.06977 ; skirt
G1 X127.434 Y132.698 E.16825 ; skirt
G1 X126.352 Y130.967 E.06908 ; skirt
G1 X126.012 Y128.934 E.06977 ; skirt
G1 X126.464 Y114.571 E.48643 ; skirt
G1 X126.922 Y112.582 E.06908 ; skirt
G1 X128.084 Y110.953 E.06774 ; skirt
G1 X128.398 Y111.201 ; move to first skirt point
G1 X132.021 Y107.798 E.16825 ; skirt
G1 X133.691 Y106.773 E.06633 ; skirt
G1 X135.493 Y106.487 E.06177 ; skirt
G1 X168.919 Y107.57 E1.132 ; skirt
G1 X170.158 Y107.787 E.04258 ; skirt
G1 X171.288 Y108.114 E.03984 ; skirt
G1 X174.343 Y109.287 E.11075 ; skirt
G1 X176.593 Y111.135 E.09855 ; skirt
G1 X178.657 Y114.297 E.12782 ; skirt
G1 X179.443 Y117.101 E.09855 ; skirt
G1 X179.046 Y129.736 E.4279 ; skirt
G1 X178.087 Y132.481 E.09842 ; skirt
G1 X175.834 Y135.505 E.12764 ; skirt
G1 X173.478 Y137.208 E.09842 ; skirt
G1 X171.315 Y137.925 E.07713 ; skirt
G1 X169.804 Y138.324 E.05289 ; skirt
G1 X168.638 Y138.53 E.04008 ; skirt
G1 X167.382 Y138.604 E.0426 ; skirt
G1 X134.516 Y137.57 E1.11301 ; skirt
G1 X132.61 Y137.114 E.06633 ; skirt
G1 X131.133 Y136.043 E.06177 ; skirt
G1 X127.731 Y132.419 E.16825 ; skirt
G1 X126.706 Y130.749 E.06633 ; skirt
G1 X126.419 Y128.947 E.06177 ; skirt
G1 X126.87 Y114.584 E.48643 ; skirt
G1 X127.326 Y112.678 E.06633 ; skirt
G1 X128.363 Y111.25 E.05974 ; skirt
G1 X128.677 Y111.498 ; move to first skirt point
G1 X132.3 Y108.095 E.16825 ; skirt
G1 X133.907 Y107.129 E.06345 ; skirt
G1 X135.481 Y106.893 E.05388 ; skirt
G1 X168.859 Y107.973 E1.1304 ; skirt
G1 X170.052 Y108.18 E.04098 ; skirt
G1 X171.164 Y108.502 E.0392 ; skirt
G1 X174.191 Y109.665 E.10974 ; skirt
G1 X176.252 Y111.358 E.09028 ; skirt
G1 X178.316 Y114.52 E.12782 ; skirt
G1 X179.036 Y117.088 E.09028 ; skirt
G1 X178.639 Y129.723 E.4279 ; skirt
G1 X177.761 Y132.238 E.09016 ; skirt
G1 X175.508 Y135.262 E.12764 ; skirt
G1 X173.349 Y136.822 E.09016 ; skirt
G1 X171.198 Y137.535 E.0767 ; skirt
G1 X169.716 Y137.926 E.0519 ; skirt
G1 X168.603 Y138.124 E.03824 ; skirt
G1 X167.394 Y138.197 E.041 ; skirt
G1 X134.529 Y137.163 E1.11301 ; skirt
G1 X132.71 Y136.711 E.06345 ; skirt
G1 X131.43 Y135.764 E.05388 ; skirt
G1 X128.027 Y132.141 E.16825 ; skirt
G1 X127.061 Y130.534 E.06345 ; skirt
G1 X126.826 Y128.96 E.05388 ; skirt
G1 X127.277 Y114.597 E.48643 ; skirt
G1 X127.73 Y112.778 E.06345 ; skirt
G1 X128.641 Y111.546 E.05185 ; skirt
G1 X128.955 Y111.794 ; move to first skirt point
G1 X132.579 Y108.392 E.16825 ; skirt
G1 X134.119 Y107.488 E.06044 ; skirt
G1 X135.468 Y107.3 E.04611 ; skirt
G1 X168.799 Y108.376 E1.12881 ; skirt
G1 X169.946 Y108.573 E.03939 ; skirt
G1 X171.04 Y108.89 E.03857 ; skirt
G1 X174.039 Y110.043 E.10873 ; skirt
G1 X175.911 Y111.58 E.08201 ; skirt
G1 X177.975 Y114.742 E.12782 ; skirt
G1 X178.629 Y117.075 E.08201 ; skirt
G1 X178.232 Y129.71 E.4279 ; skirt
G1 X177.434 Y131.995 E.0819 ; skirt
G1 X175.181 Y135.018 E.12764 ; skirt
G1 X173.221 Y136.436 E.0819 ; skirt
G1 X171.082 Y137.145 E.07627 ; skirt
G1 X169.697 Y137.513 E.04851 ; skirt
G1 X168.569 Y137.719 E.0388 ; skirt
G1 X167.407 Y137.79 E.03941 ; skirt
G1 X134.542 Y136.757 E1.11301 ; skirt
G1 X132.813 Y136.307 E.06044 ; skirt
G1 X131.727 Y135.485 E.04611 ; skirt
G1 X128.324 Y131.862 E.16825 ; skirt
G1 X127.42 Y130.322 E.06044 ; skirt
G1 X127.232 Y128.973 E.04611 ; skirt
G1 X127.684 Y114.609 E.48643 ; skirt
G1 X128.134 Y112.881 E.06044 ; skirt
G1 X128.919 Y111.842 E.04408 ; skirt
G1 X129.234 Y112.091 ; move to first skirt point
G1 X132.857 Y108.689 E.16825 ; skirt
G1 X134.327 Y107.85 E.05727 ; skirt
G1 X135.455 Y107.707 E.0385 ; skirt
G1 X168.739 Y108.778 E1.12721 ; skirt
G1 X169.84 Y108.966 E.03779 ; skirt
G1 X170.916 Y109.277 E.03793 ; skirt
G1 X173.887 Y110.42 E.10772 ; skirt
G1 X175.57 Y111.803 E.07373 ; skirt
G1 X177.634 Y114.965 E.12782 ; skirt
G1 X178.222 Y117.062 E.07373 ; skirt
G1 X177.825 Y129.698 E.4279 ; skirt
G1 X177.108 Y131.751 E.07364 ; skirt
G1 X174.855 Y134.775 E.12764 ; skirt
G1 X173.092 Y136.05 E.07364 ; skirt
G1 X170.965 Y136.755 E.07583 ; skirt
G1 X169.602 Y137.117 E.04776 ; skirt
G1 X168.535 Y137.313 E.03672 ; skirt
G1 X167.42 Y137.383 E.03781 ; skirt
G1 X134.554 Y136.35 E1.11301 ; skirt
G1 X132.922 Y135.904 E.05727 ; skirt
G1 X132.023 Y135.207 E.0385 ; skirt
G1 X128.621 Y131.583 E.16825 ; skirt
G1 X127.782 Y130.114 E.05727 ; skirt
G1 X127.639 Y128.986 E.0385 ; skirt
G1 X128.091 Y114.622 E.48643 ; skirt
G1 X128.537 Y112.99 E.05727 ; skirt
G1 X129.197 Y112.139 E.03647 ; skirt
G1 X129.511 Y112.39 ; move to first skirt point
G1 X133.136 Y108.985 E.16832 ; skirt
G1 X134.531 Y108.216 E.05391 ; skirt
G1 X135.442 Y108.114 E.03105 ; skirt
G1 X168.679 Y109.181 E1.12562 ; skirt
G1 X169.734 Y109.359 E.0362 ; skirt
G1 X170.858 Y109.686 E.03962 ; skirt
G1 X173.735 Y110.798 E.10439 ; skirt
G1 X175.229 Y112.025 E.06546 ; skirt
G1 X177.293 Y115.187 E.12782 ; skirt
G1 X177.816 Y117.049 E.06546 ; skirt
G1 X177.418 Y129.685 E.4279 ; skirt
G1 X176.782 Y131.508 E.06537 ; skirt
G1 X174.528 Y134.532 E.12764 ; skirt
G1 X172.963 Y135.664 E.06537 ; skirt
G1 X170.849 Y136.364 E.0754 ; skirt
G1 X169.507 Y136.721 E.04701 ; skirt
G1 X168.5 Y136.908 E.03464 ; skirt
G1 X167.433 Y136.976 E.03621 ; skirt
G1 X134.567 Y135.943 E1.11301 ; skirt
G1 X133.037 Y135.501 E.05391 ; skirt
G1 X132.32 Y134.928 E.03105 ; skirt
G1 X128.918 Y131.305 E.16825 ; skirt
G1 X128.148 Y129.91 E.05391 ; skirt
G1 X128.046 Y128.998 E.03105 ; skirt
G1 X128.498 Y114.635 E.48643 ; skirt
G1 X128.94 Y113.105 E.05391 ; skirt
G1 X129.474 Y112.436 E.02895 ; skirt
G1 X129.791 Y112.685 ; move to first skirt point
G1 X133.415 Y109.282 E.16825 ; skirt
G1 X135.429 Y108.521 E.07291 ; skirt
G1 X168.62 Y109.584 E1.12403 ; skirt
G1 X169.628 Y109.752 E.0346 ; skirt
G1 X170.734 Y110.074 E.03899 ; skirt
G1 X173.583 Y111.175 E.10338 ; skirt
G1 X174.888 Y112.248 E.05719 ; skirt
G1 X176.952 Y115.41 E.12782 ; skirt
G1 X177.409 Y117.037 E.05719 ; skirt
G1 X177.011 Y129.672 E.4279 ; skirt
G1 X176.455 Y131.265 E.05711 ; skirt
G1 X174.202 Y134.289 E.12764 ; skirt
G1 X172.835 Y135.277 E.05711 ; skirt
G1 X170.732 Y135.974 E.07497 ; skirt
G1 X169.412 Y136.325 E.04626 ; skirt
G1 X168.466 Y136.502 E.03256 ; skirt
G1 X167.445 Y136.569 E.03462 ; skirt
G1 X134.58 Y135.536 E1.11301 ; skirt
G1 X132.617 Y134.65 E.07291 ; skirt
G1 X129.214 Y131.026 E.16825 ; skirt
G1 X128.453 Y129.011 E.07291 ; skirt
G1 X128.905 Y114.648 E.48643 ; skirt
G1 X129.767 Y112.739 E.07087 ; skirt
G1 X130.07 Y112.981 ; move to first skirt point
G1 X133.693 Y109.579 E.16825 ; skirt
G1 X135.417 Y108.928 E.06236 ; skirt
G1 X168.56 Y109.986 E1.12243 ; skirt
G1 X169.522 Y110.145 E.03301 ; skirt
G1 X170.61 Y110.462 E.03835 ; skirt
G1 X173.431 Y111.553 E.10237 ; skirt
G1 X174.547 Y112.47 E.04892 ; skirt
G1 X176.612 Y115.632 E.12782 ; skirt
G1 X177.002 Y117.024 E.04892 ; skirt
G1 X176.604 Y129.659 E.4279 ; skirt
G1 X176.129 Y131.022 E.04885 ; skirt
G1 X173.876 Y134.046 E.12764 ; skirt
G1 X172.706 Y134.891 E.04885 ; skirt
G1 X170.778 Y135.533 E.06879 ; skirt
G1 X168.708 Y136.057 E.07227 ; skirt
G1 X167.458 Y136.163 E.04245 ; skirt
G1 X134.593 Y135.129 E1.11301 ; skirt
G1 X132.914 Y134.371 E.06236 ; skirt
G1 X129.511 Y130.747 E.16825 ; skirt
G1 X128.86 Y129.024 E.06236 ; skirt
G1 X129.312 Y114.661 E.48643 ; skirt
G1 X130.045 Y113.036 E.06033 ; skirt
G1 E-3 F3000 ; retract
G1 X132.857 Y114.62 F3600 ; move to first brim point
G1 E3 F3000 ;  ; unretract
G1 F3600
G1 X133.623 Y113.635 E.04225 ; brim
G1 X134.648 Y112.76 E.04561 ; brim
G1 X135.687 Y112.231 E.03945 ; brim
G1 X136.741 Y111.951 E.03692 ; brim
G1 X144.778 Y112.135 E.2721 ; brim
G1 X168.2 Y112.872 E.79322 ; brim
G1 X170.761 Y113.612 E.09023 ; brim
G1 X171.275 Y113.859 E.0193 ; brim
G1 X172.831 Y115.177 E.06903 ; brim
G1 X173.66 Y116.593 E.05554 ; brim
G1 X174.033 Y118.139 E.05383 ; brim
G1 X173.737 Y128.198 E.34063 ; brim
G1 X173.043 Y130.271 E.07402 ; brim
G1 X172.063 Y131.503 E.05327 ; brim
G1 X170.786 Y132.425 E.05331 ; brim
G1 X170.016 Y132.723 E.02794 ; brim
G1 X167.558 Y133.253 E.08512 ; brim
G1 X136.545 Y132.277 E1.05027 ; brim
G1 X134.303 Y131.44 E.08101 ; brim
G1 X133.566 Y130.816 E.0327 ; brim
G1 X132.574 Y129.614 E.05274 ; brim
G1 X132.125 Y128.631 E.0366 ; brim
G1 X131.834 Y127.254 E.04762 ; brim
G1 X132.163 Y116.614 E.36032 ; brim
G1 X132.838 Y114.677 E.06943 ; brim
G1 X133.221 Y114.813 ; move to first brim point
G1 X133.903 Y113.932 E.0377 ; brim
G1 X134.893 Y113.086 E.04409 ; brim
G1 X135.85 Y112.605 E.03623 ; brim
G1 X136.816 Y112.352 E.0338 ; brim
G1 X144.767 Y112.542 E.26922 ; brim
G1 X168.161 Y113.278 E.79226 ; brim
G1 X170.632 Y113.998 E.08711 ; brim
G1 X171.034 Y114.188 E.01506 ; brim
G1 X172.499 Y115.415 E.06466 ; brim
G1 X173.271 Y116.719 E.05129 ; brim
G1 X173.631 Y118.208 E.05186 ; brim
G1 X173.331 Y128.156 E.33688 ; brim
G1 X172.701 Y130.048 E.06749 ; brim
G1 X171.8 Y131.191 E.04927 ; brim
G1 X170.613 Y132.056 E.04971 ; brim
G1 X169.913 Y132.328 E.02543 ; brim
G1 X167.545 Y132.845 E.08203 ; brim
G1 X136.591 Y131.872 E1.04829 ; brim
G1 X134.538 Y131.106 E.07416 ; brim
G1 X133.867 Y130.541 E.02971 ; brim
G1 X132.932 Y129.419 E.04944 ; brim
G1 X132.518 Y128.524 E.03336 ; brim
G1 X132.238 Y127.194 E.046 ; brim
G1 X132.569 Y116.659 E.35678 ; brim
G1 X133.201 Y114.869 E.06425 ; brim
G1 X133.584 Y115.006 ; move to first brim point
G1 X133.601 Y114.958 E.00173 ; brim
G1 X134.181 Y114.229 E.03155 ; brim
G1 X135.138 Y113.412 E.04259 ; brim
G1 X136.01 Y112.979 E.03295 ; brim
G1 X136.889 Y112.754 E.03071 ; brim
G1 X144.756 Y112.949 E.26637 ; brim
G1 X168.122 Y113.684 E.79131 ; brim
G1 X170.504 Y114.385 E.08402 ; brim
G1 X170.797 Y114.52 E.01092 ; brim
G1 X172.167 Y115.653 E.06019 ; brim
G1 X172.905 Y116.899 E.04901 ; brim
G1 X173.228 Y118.275 E.04784 ; brim
G1 X172.926 Y128.114 E.33322 ; brim
G1 X172.359 Y129.824 E.06096 ; brim
G1 X171.498 Y130.916 E.04708 ; brim
G1 X170.398 Y131.709 E.04592 ; brim
G1 X169.811 Y131.934 E.02126 ; brim
G1 X167.533 Y132.437 E.07898 ; brim
G1 X136.637 Y131.466 E1.0463 ; brim
G1 X134.772 Y130.772 E.06734 ; brim
G1 X134.166 Y130.265 E.02675 ; brim
G1 X133.288 Y129.221 E.04615 ; brim
G1 X132.911 Y128.415 E.03013 ; brim
G1 X132.645 Y127.182 E.0427 ; brim
G1 X132.975 Y116.704 E.35483 ; brim
G1 X133.564 Y115.063 E.05902 ; brim
G1 X133.945 Y115.202 ; move to first brim point
G1 X133.971 Y115.131 E.00258 ; brim
G1 X134.459 Y114.527 E.02628 ; brim
G1 X135.382 Y113.739 E.04108 ; brim
G1 X136.169 Y113.355 E.02962 ; brim
G1 X136.961 Y113.155 E.02765 ; brim
G1 X144.745 Y113.356 E.26357 ; brim
G1 X168.083 Y114.09 E.79036 ; brim
G1 X170.372 Y114.77 E.08083 ; brim
G1 X170.601 Y114.877 E.00854 ; brim
